svgs/music_widget.svg

<svg xmlns="http://www.w3.org/2000/svg" viewBox="0 0 192 192"><path d="M25.467 164.531c-1.392-.355-4.298-2.161-5.792-3.6-.856-.824-2.004-2.43-2.55-3.568l-.995-2.07-.106-17.743c-.103-17.194.107-22.109.954-22.392.195-.065.355-.493.355-.952 0-.458.139-.834.308-.834.169 0 .405-.388.524-.862s.455-.863.748-.863c.292 0 .449-.131.35-.293-.18-.291 1.036-1.53 1.693-1.724.19-.056.578-.312.862-.568.285-.257 1.217-.743 2.07-1.081 1.403-.554 3.271-.625 19.322-.734 18.415-.125 20.953.014 23.426 1.279 3.363 1.72 5.795 4.968 6.749 9.017.743 3.151.78 34.539.045 37.301-.762 2.862-1.871 5.043-2.981 5.864-.56.414-1.018.925-1.018 1.136 0 .21-.541.579-1.204.818-.662.24-1.445.677-1.74.972-.295.295-1.112.67-1.815.833-1.319.307-38.02.366-39.205.064Zm18.477-14.398c1.496-.645 3.189-2.453 3.697-3.949.259-.76.399-4.126.399-9.574v-8.402h5.865v-6.555H44.59v16.199l-.885-.337c-4.68-1.779-9.621 2.814-8.642 8.034.261 1.389 2.131 3.608 3.733 4.429 1.437.737 3.645.803 5.148.155Zm47.396-10.657c-2.271-.753-5.238-2.876-6.42-4.593-1.86-2.705-2.332-4.421-2.401-8.736l-.061-3.881 1.508-.954a5048.007 5048.007 0 0 0 17.38-11.048c1.708-1.096 7.685-4.905 13.283-8.463 13.661-8.685 13.614-8.654 14.872-10.086 2.5-2.847 3.618-7.394 2.729-11.099-.235-.981-1.036-2.695-1.78-3.809-1.469-2.199-2.681-3.089-13.751-10.1a7145.104 7145.104 0 0 1-18.286-11.654c-6.926-4.426-13.369-8.525-14.318-9.107l-1.725-1.06.19-4.313c.174-3.952.28-4.486 1.259-6.383 2.617-5.069 7.832-7.704 13.291-6.714 2.616.475 2.362.346 8.721 4.404 8.762 5.592 13.692 8.731 16.315 10.385 1.382.872 3.866 2.458 5.52 3.523a1851.14 1851.14 0 0 0 7.492 4.79c2.467 1.568 5.603 3.568 6.969 4.445 1.366.876 3.927 2.509 5.693 3.627 1.765 1.119 4.839 3.074 6.832 4.345 1.992 1.271 6.495 4.14 10.005 6.376 7.181 4.573 8.939 6.08 10.281 8.809.834 1.697.932 2.282.932 5.521 0 3.002-.129 3.903-.757 5.263-.919 1.989-3.51 4.54-6.409 6.311a256.507 256.507 0 0 0-4.909 3.102 1044.24 1044.24 0 0 1-7.936 5.064c-2.846 1.801-8.28 5.264-12.076 7.696a1674.92 1674.92 0 0 1-8.874 5.658 816.755 816.755 0 0 0-10.102 6.419 821.2 821.2 0 0 1-6.728 4.295 800.308 800.308 0 0 0-6.21 3.962l-5.175 3.353c-1.613 1.044-4.164 2.574-5.669 3.399-2.496 1.37-2.979 1.51-5.52 1.606-1.672.062-3.336-.079-4.165-.353Zm-15.703-18.599c-.01-5.697-1.476-9.768-4.469-12.407-3.651-3.219-4.679-3.378-21.819-3.378H35.603l.094-34.243.095-34.244.921-1.965c1.175-2.507 3.577-4.909 6.084-6.084 1.674-.785 2.426-.921 5.07-.921 3.577 0 5.143.58 9.525 3.532 1.403.945 4.337 2.847 6.519 4.227 2.182 1.38 6.463 4.119 9.514 6.087 3.05 1.967 5.656 3.577 5.79 3.577.134 0 1.287.675 2.562 1.501 2.491 1.612 5.965 3.831 16.809 10.737 3.795 2.417 7.832 5.002 8.97 5.745 1.139.742 5.564 3.57 9.833 6.282 8.451 5.369 9.647 6.475 11.077 10.237.577 1.519.693 2.45.579 4.658-.236 4.592-2.214 7.666-6.823 10.601a5334.646 5334.646 0 0 0-10.526 6.728c-23.147 14.818-35.425 22.521-35.894 22.521-.088 0-.163-1.436-.165-3.191Z"/></svg>

<svg
    xmlns="http://www.w3.org/2000/svg"
    viewBox="0 0 192 192"
    id="vector">
    <g id="group">
        <path
            id="path"
            d="M 25.467 164.531 C 24.075 164.176 21.169 162.37 19.675 160.931 C 18.819 160.107 17.671 158.501 17.125 157.363 L 16.13 155.293 L 16.024 137.55 C 15.921 120.356 16.131 115.441 16.978 115.158 C 17.173 115.093 17.333 114.665 17.333 114.206 C 17.333 113.748 17.472 113.372 17.641 113.372 C 17.81 113.372 18.046 112.984 18.165 112.51 C 18.284 112.036 18.62 111.647 18.913 111.647 C 19.205 111.647 19.362 111.516 19.263 111.354 C 19.083 111.063 20.299 109.824 20.956 109.63 C 21.146 109.574 21.534 109.318 21.818 109.062 C 22.103 108.805 23.035 108.319 23.888 107.981 C 25.291 107.427 27.159 107.356 43.21 107.247 C 61.625 107.122 64.163 107.261 66.636 108.526 C 69.999 110.246 72.431 113.494 73.385 117.543 C 74.128 120.694 74.165 152.082 73.43 154.844 C 72.668 157.706 71.559 159.887 70.449 160.708 C 69.889 161.122 69.431 161.633 69.431 161.844 C 69.431 162.054 68.89 162.423 68.227 162.662 C 67.565 162.902 66.782 163.339 66.487 163.634 C 66.192 163.929 65.375 164.304 64.672 164.467 C 63.353 164.774 26.652 164.833 25.467 164.531 Z M 43.944 150.133 C 45.44 149.488 47.133 147.68 47.641 146.184 C 47.9 145.424 48.04 142.058 48.04 136.61 L 48.04 128.208 L 53.905 128.208 L 53.905 121.653 L 44.59 121.653 L 44.59 137.852 L 43.705 137.515 C 39.025 135.736 34.084 140.329 35.063 145.549 C 35.324 146.938 37.194 149.157 38.796 149.978 C 40.233 150.715 42.441 150.781 43.944 150.133 Z M 91.34 139.476 C 89.069 138.723 86.102 136.6 84.92 134.883 C 83.06 132.178 82.588 130.462 82.519 126.147 L 82.458 122.266 L 83.966 121.312 C 89.641 117.721 98.738 111.938 101.346 110.264 C 103.054 109.168 109.031 105.359 114.629 101.801 C 128.29 93.116 128.243 93.147 129.501 91.715 C 132.001 88.868 133.119 84.321 132.23 80.616 C 131.995 79.635 131.194 77.921 130.45 76.807 C 128.981 74.608 127.769 73.718 116.699 66.707 C 113.568 64.724 105.339 59.48 98.413 55.053 C 91.487 50.627 85.044 46.528 84.095 45.946 L 82.37 44.886 L 82.56 40.573 C 82.734 36.621 82.84 36.087 83.819 34.19 C 86.436 29.121 91.651 26.486 97.11 27.476 C 99.726 27.951 99.472 27.822 105.831 31.88 C 114.593 37.472 119.523 40.611 122.146 42.265 C 123.528 43.137 126.012 44.723 127.666 45.788 C 129.32 46.854 132.691 49.009 135.158 50.578 C 137.625 52.146 140.761 54.146 142.127 55.023 C 143.493 55.899 146.054 57.532 147.82 58.65 C 149.585 59.769 152.659 61.724 154.652 62.995 C 156.644 64.266 161.147 67.135 164.657 69.371 C 171.838 73.944 173.596 75.451 174.938 78.18 C 175.772 79.877 175.87 80.462 175.87 83.701 C 175.87 86.703 175.741 87.604 175.113 88.964 C 174.194 90.953 171.603 93.504 168.704 95.275 C 167.522 95.996 165.313 97.392 163.795 98.377 C 162.277 99.362 158.706 101.641 155.859 103.441 C 153.013 105.242 147.579 108.705 143.783 111.137 C 139.988 113.569 135.995 116.115 134.909 116.795 C 131.273 119.071 127.59 121.411 124.807 123.214 C 123.289 124.198 120.262 126.131 118.079 127.509 C 115.897 128.888 113.102 130.671 111.869 131.471 C 110.636 132.271 108.307 133.78 106.694 134.824 C 105.081 135.868 102.53 137.398 101.025 138.223 C 98.529 139.593 98.046 139.733 95.505 139.829 C 93.833 139.891 92.169 139.75 91.34 139.476 Z M 75.637 120.877 C 75.627 115.18 74.161 111.109 71.168 108.47 C 67.517 105.251 66.489 105.092 49.349 105.092 L 35.603 105.092 L 35.697 70.849 L 35.792 36.605 L 36.713 34.64 C 37.888 32.133 40.29 29.731 42.797 28.556 C 44.471 27.771 45.223 27.635 47.867 27.635 C 51.444 27.635 53.01 28.215 57.392 31.167 C 58.795 32.112 61.729 34.014 63.911 35.394 C 66.093 36.774 70.374 39.513 73.425 41.481 C 76.475 43.448 79.081 45.058 79.215 45.058 C 79.349 45.058 80.502 45.733 81.777 46.559 C 84.268 48.171 87.742 50.39 98.586 57.296 C 102.381 59.713 106.418 62.298 107.556 63.041 C 108.695 63.783 113.12 66.611 117.389 69.323 C 125.84 74.692 127.036 75.798 128.466 79.56 C 129.043 81.079 129.159 82.01 129.045 84.218 C 128.809 88.81 126.831 91.884 122.222 94.819 C 119.684 96.436 117.183 98.034 111.696 101.547 C 88.549 116.365 76.271 124.068 75.802 124.068 C 75.714 124.068 75.639 122.632 75.637 120.877 Z"
            fill="#000000"
            stroke-width="12"/>
    </g>
</svg>
